X:113
T:Random Jig, The
T:Random Notes
R:jig
C:James Hill (1811-1853), Northumberland (?)
Z:id:hn-jig-113
M:6/8
K:D
~d3 fed|cea ecA|~B3 efg|Bed cBA|~d3 fed|cea ecA|~B3 efg|Bec d3:|
DFA FAd|Adf dfa|afa geg|fdf ecA|DFA FAd|Adf dfa|cBA fed|cdB A3||
~a3 ~b3|~g3 ~a3|dcd efg|Bed cBA|~a3 ~b3|~g3 ~a3|dcd efg|Bec d3||

